gama.ui.shared/icons_svg/light/navigator/files/file.html.svg

<svg height="16.751" viewBox="-802.872 -3501.737 16.75 16.751" width="16.75" xmlns="http://www.w3.org/2000/svg"><g fill="none"><path d="m-802.497-3501.361h15.999997v15.999997h-15.999997z"/><path d="m-798.6574-3500.4814 4.96-.16 3.36-.16 3.2 3.2-.16 11.68h-11.36z" fill="#fff"/><path d="m-786.4978-3497.7386v10.3776c0 1.1046-.8954 2-2 2h-8.8c-1.1045 0-2-.8954-2-2v-12c0-1.1046.8955-2 2-2h7.1776c.1062-.0067.2168.0287.3053.117l3.2 3.2c.08845.0886.1239.199.1171.3054zm-4-2.8224h-6.8c-.6627 0-1.2.5373-1.2 1.2v12c0 .6627.5373 1.2 1.2 1.2h8.8c.6628 0 1.2-.5373 1.2-1.2v-10h-2.8c-.2209 0-.4-.179-.4-.4zm.8.5657v1.8343h1.8343z" fill="#999"/><g fill="#518737"><path d="m-796.8554-3492.0187v-.6945l3.4253-1.4428v.917l-2.0633.883 2.0633.8565v.9238z"/><path d="m-792.3647-3490.5757v-.9238l2.0633-.8565-2.0633-.883v-.917l3.4254 1.4428v.6945z"/></g></g></svg>

<?xml version="1.0" encoding="UTF-8" standalone="no"?>
<!DOCTYPE svg PUBLIC "-//W3C//DTD SVG 1.1//EN" "http://www.w3.org/Graphics/SVG/1.1/DTD/svg11.dtd">
<svg xmlns="http://www.w3.org/2000/svg" version="1.1" xmlns:xl="http://www.w3.org/1999/xlink" xmlns:dc="http://purl.org/dc/elements/1.1/" viewBox="-802.872 -3501.737 16.749997 16.7508" width="16.749997" height="16.7508">
  <defs/>
  <g id="SOURCES" stroke-opacity="1" stroke-dasharray="none" fill="none" fill-opacity="1" stroke="none">
    <title>SOURCES</title>
    <g id="SOURCES_Light">
      <title>Light</title>
      <g id="Group_8808">
        <g id="Graphic_8714">
          <rect x="-802.497" y="-3501.361" width="15.999997" height="15.999997" stroke="gray" stroke-opacity="0" stroke-linecap="round" stroke-linejoin="round" stroke-width="0"/>
        </g>
        <g id="Graphic_6563">
          <path d="M -798.6574 -3500.4814 L -793.6974 -3500.6414 L -790.3374 -3500.8014 L -787.1374 -3497.6014 L -787.2974 -3485.9214 L -798.6574 -3485.9214 Z" fill="white"/>
        </g>
        <g id="Graphic_6562">
          <path d="M -786.4978 -3497.7386 L -786.4978 -3487.361 C -786.4978 -3486.2564 -787.3932 -3485.361 -788.4978 -3485.361 L -797.2978 -3485.361 C -798.4023 -3485.361 -799.2978 -3486.2564 -799.2978 -3487.361 L -799.2978 -3499.361 C -799.2978 -3500.4656 -798.4023 -3501.361 -797.2978 -3501.361 L -790.1202 -3501.361 C -790.014 -3501.3677 -789.9034 -3501.3323 -789.8149 -3501.244 L -786.6149 -3498.044 C -786.52645 -3497.9554 -786.491 -3497.845 -786.4978 -3497.7386 Z M -790.4978 -3500.561 L -797.2978 -3500.561 C -797.9605 -3500.561 -798.4978 -3500.0237 -798.4978 -3499.361 L -798.4978 -3487.361 C -798.4978 -3486.6983 -797.9605 -3486.161 -797.2978 -3486.161 L -788.4978 -3486.161 C -787.835 -3486.161 -787.2978 -3486.6983 -787.2978 -3487.361 L -787.2978 -3497.361 L -790.0978 -3497.361 C -790.3187 -3497.361 -790.4978 -3497.54 -790.4978 -3497.761 Z M -789.6978 -3499.9953 L -789.6978 -3498.161 L -787.8635 -3498.161 Z" fill="#999"/>
        </g>
        <g id="Group_6547">
          <g id="Graphic_6549">
            <path d="M -796.8554 -3492.0187 L -796.8554 -3492.7132 L -793.4301 -3494.156 L -793.4301 -3493.239 L -795.4934 -3492.356 L -793.4301 -3491.4995 L -793.4301 -3490.5757 Z" fill="#518737"/>
          </g>
          <g id="Graphic_6548">
            <path d="M -792.3647 -3490.5757 L -792.3647 -3491.4995 L -790.3014 -3492.356 L -792.3647 -3493.239 L -792.3647 -3494.156 L -788.9393 -3492.7132 L -788.9393 -3492.0187 Z" fill="#518737"/>
          </g>
        </g>
      </g>
    </g>
  </g>
</svg>
